lib/logo_updates/nrk-logo-nrk-jazz-on-light.svg

<svg width="249" height="48" viewBox="0 0 249 48" fill="none" xmlns="http://www.w3.org/2000/svg">
<path d="M0 45V3.00381H13.7802V45H0ZM32.5283 9.68773L40.4532 45H25.3721L15.9092 3.00381H24.3676C26.3072 2.97864 28.1892 3.66237 29.6607 4.92636C31.1347 6.13734 32.1473 7.81844 32.5283 9.68773ZM42.5233 45V3.00381H56.3035V45H42.5233ZM66.7116 18.9743C65.2267 18.9888 63.7656 18.6003 62.4839 17.8504C61.2193 17.1194 60.1688 16.0689 59.438 14.8041C58.6872 13.5222 58.2986 12.0607 58.3134 10.5751C58.2964 9.09861 58.6853 7.64583 59.438 6.3755C60.1766 5.12447 61.2259 4.08533 62.4839 3.35882C63.766 2.60976 65.2269 2.2213 66.7116 2.23484C68.1877 2.21895 69.6399 2.60775 70.9108 3.35882C72.1562 4.09169 73.1943 5.12996 73.9271 6.3755C74.6789 7.64618 75.0677 9.09873 75.0517 10.5751C75.0655 12.0605 74.6769 13.5218 73.9271 14.8041C73.202 16.0633 72.1627 17.113 70.9108 17.8504C69.6398 18.6029 68.1866 18.9918 66.7097 18.9743H66.7116ZM77.1807 45V3.00381H90.9621V45H77.1807ZM108.408 25.9538C108.447 25.9946 108.742 26.4776 109.295 27.403C109.848 28.3283 110.567 29.5114 111.454 30.952C112.341 32.392 113.277 33.9199 114.262 35.536C115.247 37.1521 116.174 38.6803 117.043 40.1202C117.908 41.5602 118.894 43.1867 120 45H104.859C103.912 43.4621 103.055 42.0721 102.286 40.83C101.517 39.5878 100.7 38.2471 99.8334 36.8077C98.9653 35.3698 98.1071 33.9699 97.2587 32.6081C96.4103 31.2464 95.6813 30.0536 95.0714 29.0297C94.459 28.0051 94.0348 27.3149 93.7989 26.9594C93.2139 26.0771 92.8677 25.058 92.7944 24.0019C92.853 22.9883 93.1791 22.0084 93.7397 21.1619C93.9762 20.7676 94.41 20.0675 95.0409 19.062C95.6717 18.0564 96.411 16.8637 97.2587 15.4835C98.1064 14.1034 98.9647 12.6936 99.8334 11.2543C100.702 9.81501 101.519 8.46432 102.286 7.20247C103.056 5.94193 103.914 4.54205 104.859 3.00285H120L108.289 22.1082C107.926 22.6755 107.722 23.3292 107.697 24.0019C107.736 24.7081 107.983 25.3871 108.406 25.9538H108.408Z" fill="#0A2343"/>
<path d="M147.423 35.4405C147.434 36.1267 147.314 36.8086 147.07 37.4496C146.849 38.0185 146.507 38.5325 146.069 38.9562C145.614 39.3836 145.071 39.7063 144.479 39.9017C143.795 40.1271 143.079 40.2369 142.359 40.2267C141.888 40.2267 141.446 40.2069 141.034 40.1675C140.622 40.1281 140.21 40.079 139.798 40.0199C139.386 39.9608 138.974 39.8915 138.561 39.812C138.149 39.7326 137.727 39.6444 137.295 39.5472C136.864 39.4487 136.432 39.3403 136 39.2221L136.471 44.5401C137.021 44.6977 137.551 44.845 138.061 44.9823C138.571 45.1211 139.081 45.2383 139.592 45.3377C140.117 45.4375 140.648 45.5063 141.182 45.5437C141.731 45.5831 142.34 45.603 143.007 45.6036C144.368 45.6251 145.726 45.4558 147.04 45.1004C148.113 44.8082 149.121 44.3176 150.014 43.6538C150.819 43.0444 151.507 42.2937 152.045 41.4379C152.58 40.5794 152.978 39.642 153.223 38.6599C153.482 37.6264 153.61 36.5642 153.606 35.4986V3H147.423V35.4405Z" fill="#481581"/>
<path d="M188.464 41.2312C188.033 41.2707 187.6 41.2054 187.2 41.0408C186.8 40.8762 186.446 40.6172 186.167 40.2858C185.621 39.339 185.394 38.2407 185.52 37.1541L185.637 24.9819C185.65 23.7059 185.492 22.4339 185.166 21.2003C184.88 20.1182 184.401 19.0969 183.753 18.1858C183.098 17.2955 182.266 16.5511 181.309 15.9995C180.198 15.3669 178.997 14.9089 177.747 14.6415C176.219 14.3102 174.659 14.1517 173.096 14.1688C171.855 14.1679 170.616 14.2465 169.386 14.4042C168.224 14.5516 167.073 14.7789 165.941 15.0846C164.892 15.3697 163.86 15.715 162.85 16.1187L162.143 21.1412C163.125 20.7873 164.057 20.4918 164.94 20.2548C165.824 20.0178 166.677 19.8209 167.502 19.664C168.31 19.5093 169.125 19.4012 169.945 19.34C170.749 19.2809 171.544 19.251 172.33 19.2503C173.531 19.2249 174.729 19.3641 175.892 19.664C176.741 19.8771 177.522 20.3046 178.159 20.9058C178.727 21.4899 179.133 22.2131 179.337 23.0034C179.588 23.9776 179.707 24.9813 179.69 25.9874L179.683 27.4695L172.801 27.9373C170.447 28.0034 168.128 28.5247 165.971 29.4726C164.357 30.1819 162.963 31.3149 161.937 32.7521C161.067 34.0313 160.605 35.5459 160.613 37.095C160.602 38.5487 160.956 39.9818 161.643 41.2618C162.363 42.5757 163.447 43.6526 164.764 44.3628C166.37 45.2015 168.165 45.6087 169.975 45.5447C171.67 45.5836 173.358 45.3034 174.95 44.7184C176.327 44.1777 177.587 43.3751 178.66 42.3549C179.067 41.963 179.454 41.5499 179.818 41.117C179.932 41.7291 180.148 42.3175 180.456 42.8581C180.981 43.7624 181.788 44.4684 182.752 44.8671C183.818 45.297 184.96 45.508 186.108 45.4876C186.462 45.4876 186.805 45.4767 187.139 45.458C187.467 45.4382 187.792 45.3884 188.11 45.3093C188.424 45.2305 188.708 45.1626 188.964 45.1025C189.195 45.0513 189.421 44.9821 189.641 44.8956L190.289 40.9378C189.964 41.0494 189.629 41.1285 189.288 41.1741C189.015 41.21 188.739 41.2291 188.464 41.2312ZM178.66 38.5722C178.021 39.0788 177.33 39.515 176.599 39.8731C175.87 40.2284 175.098 40.4866 174.303 40.6413C173.478 40.8004 172.64 40.8792 171.8 40.8767C170.84 40.9046 169.886 40.7232 169.003 40.3449C168.285 40.0325 167.679 39.507 167.266 38.8391C166.858 38.1308 166.654 37.3228 166.677 36.5051C166.62 35.5197 166.89 34.5431 167.443 33.727C168.084 32.9765 168.953 32.4576 169.916 32.2498C171.42 31.8948 172.964 31.7363 174.509 31.7781H179.665L179.638 37.6425C179.339 37.9795 179.012 38.2912 178.66 38.5722Z" fill="#481581"/>
<path d="M218.139 19.0138L217.433 14.8176H194.704L193.997 19.5447H211.097L193.469 40.9346L194.175 44.9526H218.199L218.847 40.1665H200.85L218.139 19.0138Z" fill="#481581"/>
<path d="M230.525 40.1675L247.817 19.015L247.109 14.8187H224.381L223.674 19.5458H240.772L223.144 40.9357L223.851 44.9538H247.875L248.522 40.1675H230.525Z" fill="#481581"/>
</svg>

<svg xmlns="http://www.w3.org/2000/svg" viewBox="0 0 249 48"><path fill="#0A2343" d="M0 45V3.004h13.78V45H0ZM32.528 9.688 40.453 45h-15.08L15.908 3.004h8.459a7.965 7.965 0 0 1 5.293 1.922 8.31 8.31 0 0 1 2.867 4.762ZM42.523 45V3.004h13.78V45h-13.78Zm24.189-26.026a8.213 8.213 0 0 1-4.228-1.124 8.336 8.336 0 0 1-3.046-3.046 8.206 8.206 0 0 1-1.125-4.229 8.056 8.056 0 0 1 1.125-4.2 8.437 8.437 0 0 1 3.046-3.016 8.232 8.232 0 0 1 4.228-1.124 8.083 8.083 0 0 1 4.199 1.124 8.503 8.503 0 0 1 3.016 3.016 8.075 8.075 0 0 1 1.125 4.2 8.226 8.226 0 0 1-1.125 4.23 8.4 8.4 0 0 1-3.016 3.045 8.059 8.059 0 0 1-4.201 1.124h.002ZM77.18 45V3.004h13.781V45H77.181Zm31.227-19.046c.039.04.334.524.887 1.449.553.925 1.272 2.108 2.159 3.549a1143.28 1143.28 0 0 1 5.589 9.168A854.89 854.89 0 0 0 120 45h-15.141c-.947-1.538-1.804-2.928-2.573-4.17a382.214 382.214 0 0 1-2.453-4.022 351.934 351.934 0 0 0-2.574-4.2 213.445 213.445 0 0 1-2.188-3.578 62.753 62.753 0 0 0-1.272-2.07 6.119 6.119 0 0 1-1.005-2.958 5.744 5.744 0 0 1 .946-2.84c.236-.394.67-1.095 1.3-2.1.632-1.006 1.371-2.198 2.219-3.579a636.03 636.03 0 0 0 2.574-4.229c.869-1.439 1.686-2.79 2.453-4.052.77-1.26 1.628-2.66 2.573-4.2H120l-11.711 19.106a3.773 3.773 0 0 0-.592 1.894c.039.706.286 1.385.709 1.952h.002Z"/><path fill="#481581" d="M147.423 35.44a5.404 5.404 0 0 1-.353 2.01 4.226 4.226 0 0 1-1.001 1.506c-.455.428-.998.75-1.59.946-.684.225-1.4.335-2.12.325-.471 0-.913-.02-1.325-.06a26.408 26.408 0 0 1-2.473-.355c-.412-.08-.834-.168-1.266-.265a31.505 31.505 0 0 1-1.295-.325l.471 5.318c.55.158 1.08.305 1.59.442.51.14 1.02.256 1.531.356.525.1 1.056.168 1.59.206.549.04 1.158.059 1.825.06a14.568 14.568 0 0 0 4.033-.504 8.907 8.907 0 0 0 2.974-1.446 8.358 8.358 0 0 0 2.031-2.216 9.687 9.687 0 0 0 1.178-2.778c.259-1.034.387-2.096.383-3.161V3h-6.183v32.44ZM188.464 41.231a2.677 2.677 0 0 1-2.297-.945 5.095 5.095 0 0 1-.647-3.132l.117-12.172a14.233 14.233 0 0 0-.471-3.782 9.303 9.303 0 0 0-1.413-3.014 7.984 7.984 0 0 0-2.444-2.187 12.47 12.47 0 0 0-3.562-1.357 20.871 20.871 0 0 0-4.651-.473c-1.241-.001-2.48.077-3.71.235a25.542 25.542 0 0 0-3.445.68c-1.049.286-2.081.631-3.091 1.035l-.707 5.022c.982-.354 1.914-.65 2.797-.886a35.559 35.559 0 0 1 2.562-.591 21.493 21.493 0 0 1 2.443-.324c.804-.06 1.599-.089 2.385-.09a13.149 13.149 0 0 1 3.562.414 5.12 5.12 0 0 1 2.267 1.242 4.69 4.69 0 0 1 1.178 2.097c.251.975.37 1.978.353 2.984l-.007 1.483-6.882.467a18.249 18.249 0 0 0-6.83 1.536 9.804 9.804 0 0 0-4.034 3.28 7.653 7.653 0 0 0-1.324 4.342 8.673 8.673 0 0 0 1.03 4.167 7.759 7.759 0 0 0 3.121 3.1 10.457 10.457 0 0 0 5.211 1.183 13.525 13.525 0 0 0 4.975-.827 11.467 11.467 0 0 0 3.71-2.363c.407-.392.794-.805 1.158-1.238.114.612.33 1.2.638 1.741a4.76 4.76 0 0 0 2.296 2.01c1.066.429 2.208.64 3.356.62.354 0 .697-.011 1.031-.03.328-.02.653-.07.971-.149.314-.078.598-.146.854-.206.231-.052.457-.12.677-.207l.648-3.958c-.325.111-.66.19-1.001.236a6.723 6.723 0 0 1-.824.057Zm-9.804-2.659c-.639.507-1.33.943-2.061 1.301a9.292 9.292 0 0 1-2.296.768c-.825.16-1.663.238-2.503.236a6.613 6.613 0 0 1-2.797-.532 3.849 3.849 0 0 1-1.737-1.506 4.427 4.427 0 0 1-.589-2.334 4.491 4.491 0 0 1 .766-2.778 4.502 4.502 0 0 1 2.473-1.477 17.888 17.888 0 0 1 4.593-.472h5.156l-.027 5.864a7.886 7.886 0 0 1-.978.93ZM218.139 19.014l-.706-4.196h-22.729l-.707 4.727h17.1l-17.628 21.39.706 4.018h24.024l.648-4.787H200.85l17.289-21.152ZM230.525 40.167l17.292-21.152-.708-4.196h-22.728l-.707 4.727h17.098l-17.628 21.39.707 4.018h24.024l.647-4.787h-17.997Z"/></svg>
